X: 23362
T: Leitrim Lilter, The
R: reel
M: 4/4
K: Dmajor
B|AF~F2 DFAB|dfaf eB~B2|d2ed ~f3e|dBAF FEEB|
AF~F2 DFAB|dfaf eB~B2|GBge ~f3e|dBAG FDD:|
E|FAdf ~a3f|afdf eB~B2|ABde ~f2af|~g2fg eABA|
FAdf ~a3f|afdf eB~B2|GBge ~f3e|dBAG FDDE|
FAdf ~a3f|afdf eB~B2|ABde ~f2af|~g2fg efga|
bf~f2 dB~B2|ABdf eB~B2|GBge ~f3e|dBAG FDD||

